Newaita-dark/apps/48/kigo.svg

<svg height="48pt" viewBox="0 0 48 48" width="48pt" xmlns="http://www.w3.org/2000/svg" xmlns:xlink="http://www.w3.org/1999/xlink"><linearGradient id="a" gradientUnits="userSpaceOnUse" x1="23.81478" x2="23.81478" y1="42.0509045" y2="44.03547050005"><stop offset="0" stop-opacity=".27451"/><stop offset="1" stop-opacity="0"/></linearGradient><linearGradient id="b"><stop offset="0" stop-opacity=".313725"/><stop offset=".222222" stop-opacity=".27451"/><stop offset="1" stop-opacity="0"/></linearGradient><radialGradient id="c" cx="450.908936" cy="189.579361" gradientTransform="matrix(.00000026 -.117199 -.210958 -.00000015 78.195972 95.392999)" gradientUnits="userSpaceOnUse" r="21.166656" xlink:href="#b"/><radialGradient id="d" cx="450.908936" cy="189.579361" gradientTransform="matrix(-.00000026 .117199 .210958 .00000015 -30.56642 -11.291218)" gradientUnits="userSpaceOnUse" r="21.166656" xlink:href="#b"/><radialGradient id="e" cx="450.908936" cy="189.579361" gradientTransform="matrix(-.00000026 -.117199 .210958 -.00000015 -30.56642 95.392999)" gradientUnits="userSpaceOnUse" r="21.166656" xlink:href="#b"/><radialGradient id="f" cx="450.908936" cy="189.579361" gradientTransform="matrix(.00000026 .117199 -.210958 .00000015 78.195969 -11.291219)" gradientUnits="userSpaceOnUse" r="21.166656" xlink:href="#b"/><linearGradient id="g"><stop offset="0" stop-color="#bcaaa4"/><stop offset="1" stop-color="#d7ccc8"/></linearGradient><linearGradient id="h" gradientUnits="userSpaceOnUse" x1="15.87652349995" x2="15.87652349995" xlink:href="#g" y1="42.0509015" y2="4.3441580001"/><linearGradient id="i" gradientUnits="userSpaceOnUse" x1="15.87652349995" x2="15.87652349995" xlink:href="#g" y1="42.0509005" y2="4.3441570001"/><linearGradient id="j" gradientTransform="matrix(0 .093759 .093759 0 20.775444 -.617245)" gradientUnits="userSpaceOnUse" x1="455.083313" x2="52.916653" xlink:href="#g" y1="-62.833569" y2="-62.833569"/><linearGradient id="k" gradientUnits="userSpaceOnUse" x1="24.50188430266" x2="24.50188430266" y1="32.12843280118" y2="14.26695189094"><stop offset="0" stop-color="#424242"/><stop offset="1" stop-color="#757575"/></linearGradient><path d="m8.929688 41.902344h29.769531v2.207031h-29.769531zm0 0" fill="url(#a)"/><path d="m38.699219 42.050781h3.96875v-1.984375h-3.96875zm0 0" fill="url(#c)"/><path d="m8.929688 42.050781h-3.96875v1.984375h3.96875zm0 0" fill="url(#d)"/><path d="m8.929688 42.050781h-3.96875v-1.984375h3.96875zm0 0" fill="url(#e)"/><path d="m38.699219 42.050781h3.96875v1.984375h-3.96875zm0 0" fill="url(#f)"/><path d="m6.945312 4.34375h33.738282c1.097656 0 1.984375.890625 1.984375 1.984375v33.738281c0 1.097656-.886719 1.984375-1.984375 1.984375h-33.738282c-1.09375 0-1.984374-.886719-1.984374-1.984375v-33.738281c0-1.09375.890624-1.984375 1.984374-1.984375zm0 0" fill="url(#h)"/><path d="m23.816406 4.34375v18.855469h18.851563v-16.871094c0-1.097656-.886719-1.984375-1.984375-1.984375zm0 0" fill="url(#i)"/><path d="m4.960938 22.578125h37.707031v.496094h-37.707031zm0 0" fill-opacity=".235294"/><path d="m4.960938 7.007812v-.726562c0-1.097656.886718-1.984375 1.984374-1.984375h33.738282c1.097656 0 1.984375.886719 1.984375 1.984375v.726562c0-1.097656-.886719-1.984374-1.984375-1.984374h-33.738282c-1.097656 0-1.984374.886718-1.984374 1.984374zm0 0" fill="#fff" fill-opacity=".392157"/><path d="m4.960938 23.199219h18.855468v18.851562h-16.871094c-1.097656 0-1.984374-.886719-1.984374-1.984375zm0 0" fill="url(#j)"/><path d="m23.195312 42.050781v-37.707031h.496094v37.707031zm0 0" fill-opacity=".235294"/><path d="m23.9375 42.050781v-37.707031h.496094v37.707031zm0 0" fill="#fff" fill-opacity=".588235"/><path d="m4.960938 23.320312h37.707031v.496094h-37.707031zm0 0" fill="#fff" fill-opacity=".588235"/><path d="m4.960938 39.339844v.726562c0 1.097656.886718 1.984375 1.984374 1.984375h33.738282c1.097656 0 1.984375-.886719 1.984375-1.984375v-.726562c0 1.101562-.886719 1.984375-1.984375 1.984375h-33.738282c-1.097656 0-1.984374-.882813-1.984374-1.984375zm0 0" fill-opacity=".235294"/><path d="m23.675781 4.203125h-16.730469c-1.175781 0-2.125.949219-2.125 2.125v33.738281c0 .332032.074219.644532.210938.921875.015625.03125.03125.0625.046875.089844.359375.664063 1.058594 1.113281 1.867187 1.113281h33.738282c1.175781 0 2.125-.949218 2.125-2.125v-33.738281c0-.183594-.023438-.359375-.066406-.53125-.011719-.046875-.023438-.089844-.039063-.132813-.003906-.007812-.003906-.011718-.007813-.015624-.003906-.019532-.007812-.035157-.015624-.050782-.003907-.011718-.007813-.019531-.011719-.03125 0-.003906-.003907-.011718-.007813-.015625-.003906-.019531-.011718-.035156-.019531-.050781-.003906-.015625-.011719-.03125-.019531-.046875-.003906-.007813-.007813-.015625-.011719-.023437-.003906-.007813-.007813-.015626-.011719-.023438-.003906-.015625-.011718-.03125-.019531-.046875s-.015625-.027344-.027344-.042969c-.007812-.015625-.015625-.03125-.023437-.046875-.007813-.015625-.015625-.027343-.027344-.042969-.015625-.03125-.035156-.058593-.054688-.085937-.003906-.007813-.011718-.015625-.015624-.023437-.015626-.019532-.027344-.042969-.042969-.0625-.019531-.023438-.042969-.050782-.0625-.078126-.023438-.027343-.042969-.050781-.066407-.078124-.023437-.023438-.046874-.050782-.070312-.074219-.386719-.382813-.917969-.621094-1.503906-.621094zm-16.730469.28125h16.730469v18.574219h-18.574219v-16.730469c0-1.023437.820313-1.84375 1.84375-1.84375zm17.011719 0h16.726563c.511718 0 .972656.207031 1.304687.539063.023438.019531.042969.042968.0625.0625.019531.023437.039063.042968.058594.066406.011719.019531.027344.039062.042969.054687.003906.007813.007812.011719.011718.015625.015626.023438.035157.046875.050782.074219.046875.070313.09375.148437.132812.230469.023438.054687.046875.109375.070313.164062.007812.03125.019531.058594.027343.085938.054688.175781.082032.359375.082032.550781v16.730469h-18.570313zm-18.855469 18.855469h18.574219v18.570312h-16.730469c-.03125 0-.0625 0-.09375-.003906-.191406-.007812-.371093-.046875-.542968-.105469-.054688-.023437-.109375-.046875-.164063-.070312-.082031-.039063-.160156-.085938-.230469-.132813-.492187-.332031-.8125-.890625-.8125-1.53125zm18.855469 0h18.570313v16.726562c0 1.023438-.820313 1.84375-1.84375 1.84375h-16.726563zm0 0" fill="#212121"/><path d="m23.816406 14.265625c4.929688 0 8.929688 4 8.929688 8.933594 0 4.929687-4 8.929687-8.929688 8.929687-4.933594 0-8.933594-4-8.933594-8.929687 0-4.933594 4-8.933594 8.933594-8.933594zm0 0" fill="url(#k)"/><g fill-opacity=".235294"><path d="m18.734375 18.640625c1.089844-1.089844 2.328125-1.613281 2.769531-1.175781.441406.441406-.085937 1.679687-1.175781 2.769531s-2.328125 1.613281-2.765625 1.175781c-.441406-.441406.085938-1.679687 1.171875-2.769531zm0 0" fill="#fff"/><path d="m23.816406 14.265625c-4.949218 0-8.933594 3.984375-8.933594 8.933594 0 .164062.007813.332031.015626.496093.253906-4.714843 4.136718-8.4375 8.917968-8.4375s8.660156 3.722657 8.914063 8.4375c.011719-.164062.015625-.332031.015625-.496093 0-4.949219-3.984375-8.933594-8.929688-8.933594zm0 0" fill="#fff"/><path d="m23.816406 33.121094c-4.949218 0-8.933594-3.984375-8.933594-8.929688 0-.167968.007813-.332031.015626-.496094.253906 4.714844 4.136718 8.433594 8.917968 8.433594s8.660156-3.71875 8.914063-8.433594c.011719.164063.015625.328126.015625.496094 0 4.945313-3.984375 8.929688-8.929688 8.929688zm0 0" fill="#060606"/></g><path d="m254.017409-62.847863c52.578313 0 95.240905 42.662592 95.240905 95.282567 0 52.578313-42.662592 95.240905-95.240905 95.240905-52.619975 0-95.282567-42.662592-95.282567-95.240905 0-52.619975 42.662592-95.282567 95.282567-95.282567zm0 0" fill="none" stroke="#212121" stroke-linecap="round" stroke-width="3" transform="matrix(.093759 0 0 .093759 0 20.158175)"/></svg>

<?xml version="1.0" encoding="UTF-8"?>
<svg xmlns="http://www.w3.org/2000/svg" xmlns:xlink="http://www.w3.org/1999/xlink" width="48pt" height="48pt" viewBox="0 0 48 48" version="1.1">
<defs>
<linearGradient id="linear0" gradientUnits="userSpaceOnUse" x1="254" y1="233.5" x2="254" y2="254.666672" gradientTransform="matrix(0.093759,0,0,0.093759,-0.00000572259,20.158178)">
<stop offset="0" style="stop-color:rgb(0%,0%,0%);stop-opacity:0.27451;"/>
<stop offset="1" style="stop-color:rgb(0%,0%,0%);stop-opacity:0;"/>
</linearGradient>
<radialGradient id="radial0" gradientUnits="userSpaceOnUse" cx="450.908936" cy="189.579361" fx="450.908936" fy="189.579361" r="21.166656" gradientTransform="matrix(0.000000261256,-0.117199,-0.210958,-0.000000152308,78.195972,95.392999)">
<stop offset="0" style="stop-color:rgb(0%,0%,0%);stop-opacity:0.313725;"/>
<stop offset="0.222222" style="stop-color:rgb(0%,0%,0%);stop-opacity:0.27451;"/>
<stop offset="1" style="stop-color:rgb(0%,0%,0%);stop-opacity:0;"/>
</radialGradient>
<radialGradient id="radial1" gradientUnits="userSpaceOnUse" cx="450.908936" cy="189.579361" fx="450.908936" fy="189.579361" r="21.166656" gradientTransform="matrix(-0.000000261256,0.117199,0.210958,0.000000152308,-30.56642,-11.291218)">
<stop offset="0" style="stop-color:rgb(0%,0%,0%);stop-opacity:0.313725;"/>
<stop offset="0.222222" style="stop-color:rgb(0%,0%,0%);stop-opacity:0.27451;"/>
<stop offset="1" style="stop-color:rgb(0%,0%,0%);stop-opacity:0;"/>
</radialGradient>
<radialGradient id="radial2" gradientUnits="userSpaceOnUse" cx="450.908936" cy="189.579361" fx="450.908936" fy="189.579361" r="21.166656" gradientTransform="matrix(-0.000000261256,-0.117199,0.210958,-0.000000152308,-30.56642,95.392999)">
<stop offset="0" style="stop-color:rgb(0%,0%,0%);stop-opacity:0.313725;"/>
<stop offset="0.222222" style="stop-color:rgb(0%,0%,0%);stop-opacity:0.27451;"/>
<stop offset="1" style="stop-color:rgb(0%,0%,0%);stop-opacity:0;"/>
</radialGradient>
<radialGradient id="radial3" gradientUnits="userSpaceOnUse" cx="450.908936" cy="189.579361" fx="450.908936" fy="189.579361" r="21.166656" gradientTransform="matrix(0.000000261256,0.117199,-0.210958,0.000000152308,78.195969,-11.291219)">
<stop offset="0" style="stop-color:rgb(0%,0%,0%);stop-opacity:0.313725;"/>
<stop offset="0.222222" style="stop-color:rgb(0%,0%,0%);stop-opacity:0.27451;"/>
<stop offset="1" style="stop-color:rgb(0%,0%,0%);stop-opacity:0;"/>
</radialGradient>
<linearGradient id="linear1" gradientUnits="userSpaceOnUse" x1="169.333328" y1="233.5" x2="169.333328" y2="-168.666656" gradientTransform="matrix(0.093759,0,0,0.093759,0,20.158175)">
<stop offset="0" style="stop-color:rgb(73.72549%,66.666667%,64.313725%);stop-opacity:1;"/>
<stop offset="1" style="stop-color:rgb(84.313725%,80%,78.431373%);stop-opacity:1;"/>
</linearGradient>
<linearGradient id="linear2" gradientUnits="userSpaceOnUse" x1="169.333328" y1="233.5" x2="169.333328" y2="-168.666656" gradientTransform="matrix(0.093759,0,0,0.093759,0,20.158174)">
<stop offset="0" style="stop-color:rgb(73.72549%,66.666667%,64.313725%);stop-opacity:1;"/>
<stop offset="1" style="stop-color:rgb(84.313725%,80%,78.431373%);stop-opacity:1;"/>
</linearGradient>
<linearGradient id="linear3" gradientUnits="userSpaceOnUse" x1="455.083313" y1="-62.833569" x2="52.916653" y2="-62.833569" gradientTransform="matrix(0,0.093759,0.093759,0,20.775444,-0.617245)">
<stop offset="0" style="stop-color:rgb(73.72549%,66.666667%,64.313725%);stop-opacity:1;"/>
<stop offset="1" style="stop-color:rgb(84.313725%,80%,78.431373%);stop-opacity:1;"/>
</linearGradient>
<linearGradient id="linear4" gradientUnits="userSpaceOnUse" x1="158.749985" y1="0.66666" x2="158.749985" y2="-136.916672" gradientTransform="matrix(0.129823,0,0,0.129823,3.892485,32.041885)">
<stop offset="0" style="stop-color:rgb(25.882353%,25.882353%,25.882353%);stop-opacity:1;"/>
<stop offset="1" style="stop-color:rgb(45.882353%,45.882353%,45.882353%);stop-opacity:1;"/>
</linearGradient>
</defs>
<g id="surface1">
<path style=" stroke:none;fill-rule:nonzero;fill:url(#linear0);" d="M 8.929688 41.902344 L 38.699219 41.902344 L 38.699219 44.109375 L 8.929688 44.109375 Z M 8.929688 41.902344 "/>
<path style=" stroke:none;fill-rule:nonzero;fill:url(#radial0);" d="M 38.699219 42.050781 L 42.667969 42.050781 L 42.667969 40.066406 L 38.699219 40.066406 Z M 38.699219 42.050781 "/>
<path style=" stroke:none;fill-rule:nonzero;fill:url(#radial1);" d="M 8.929688 42.050781 L 4.960938 42.050781 L 4.960938 44.035156 L 8.929688 44.035156 Z M 8.929688 42.050781 "/>
<path style=" stroke:none;fill-rule:nonzero;fill:url(#radial2);" d="M 8.929688 42.050781 L 4.960938 42.050781 L 4.960938 40.066406 L 8.929688 40.066406 Z M 8.929688 42.050781 "/>
<path style=" stroke:none;fill-rule:nonzero;fill:url(#radial3);" d="M 38.699219 42.050781 L 42.667969 42.050781 L 42.667969 44.035156 L 38.699219 44.035156 Z M 38.699219 42.050781 "/>
<path style=" stroke:none;fill-rule:nonzero;fill:url(#linear1);" d="M 6.945312 4.34375 L 40.683594 4.34375 C 41.78125 4.34375 42.667969 5.234375 42.667969 6.328125 L 42.667969 40.066406 C 42.667969 41.164062 41.78125 42.050781 40.683594 42.050781 L 6.945312 42.050781 C 5.851562 42.050781 4.960938 41.164062 4.960938 40.066406 L 4.960938 6.328125 C 4.960938 5.234375 5.851562 4.34375 6.945312 4.34375 Z M 6.945312 4.34375 "/>
<path style=" stroke:none;fill-rule:nonzero;fill:url(#linear2);" d="M 23.816406 4.34375 L 23.816406 23.199219 L 42.667969 23.199219 L 42.667969 6.328125 C 42.667969 5.230469 41.78125 4.34375 40.683594 4.34375 Z M 23.816406 4.34375 "/>
<path style=" stroke:none;fill-rule:nonzero;fill:rgb(0%,0%,0%);fill-opacity:0.235294;" d="M 4.960938 22.578125 L 42.667969 22.578125 L 42.667969 23.074219 L 4.960938 23.074219 Z M 4.960938 22.578125 "/>
<path style=" stroke:none;fill-rule:nonzero;fill:rgb(100%,100%,100%);fill-opacity:0.392157;" d="M 4.960938 7.007812 L 4.960938 6.28125 C 4.960938 5.183594 5.847656 4.296875 6.945312 4.296875 L 40.683594 4.296875 C 41.78125 4.296875 42.667969 5.183594 42.667969 6.28125 L 42.667969 7.007812 C 42.667969 5.910156 41.78125 5.023438 40.683594 5.023438 L 6.945312 5.023438 C 5.847656 5.023438 4.960938 5.910156 4.960938 7.007812 Z M 4.960938 7.007812 "/>
<path style=" stroke:none;fill-rule:nonzero;fill:url(#linear3);" d="M 4.960938 23.199219 L 23.816406 23.199219 L 23.816406 42.050781 L 6.945312 42.050781 C 5.847656 42.050781 4.960938 41.164062 4.960938 40.066406 Z M 4.960938 23.199219 "/>
<path style=" stroke:none;fill-rule:nonzero;fill:rgb(0%,0%,0%);fill-opacity:0.235294;" d="M 23.195312 42.050781 L 23.195312 4.34375 L 23.691406 4.34375 L 23.691406 42.050781 Z M 23.195312 42.050781 "/>
<path style=" stroke:none;fill-rule:nonzero;fill:rgb(100%,100%,100%);fill-opacity:0.588235;" d="M 23.9375 42.050781 L 23.9375 4.34375 L 24.433594 4.34375 L 24.433594 42.050781 Z M 23.9375 42.050781 "/>
<path style=" stroke:none;fill-rule:nonzero;fill:rgb(100%,100%,100%);fill-opacity:0.588235;" d="M 4.960938 23.320312 L 42.667969 23.320312 L 42.667969 23.816406 L 4.960938 23.816406 Z M 4.960938 23.320312 "/>
<path style=" stroke:none;fill-rule:nonzero;fill:rgb(0%,0%,0%);fill-opacity:0.235294;" d="M 4.960938 39.339844 L 4.960938 40.066406 C 4.960938 41.164062 5.847656 42.050781 6.945312 42.050781 L 40.683594 42.050781 C 41.78125 42.050781 42.667969 41.164062 42.667969 40.066406 L 42.667969 39.339844 C 42.667969 40.441406 41.78125 41.324219 40.683594 41.324219 L 6.945312 41.324219 C 5.847656 41.324219 4.960938 40.441406 4.960938 39.339844 Z M 4.960938 39.339844 "/>
<path style=" stroke:none;fill-rule:nonzero;fill:rgb(12.941177%,12.941177%,12.941177%);fill-opacity:1;" d="M 23.675781 4.203125 L 6.945312 4.203125 C 5.769531 4.203125 4.820312 5.152344 4.820312 6.328125 L 4.820312 40.066406 C 4.820312 40.398438 4.894531 40.710938 5.03125 40.988281 C 5.046875 41.019531 5.0625 41.050781 5.078125 41.078125 C 5.4375 41.742188 6.136719 42.191406 6.945312 42.191406 L 40.683594 42.191406 C 41.859375 42.191406 42.808594 41.242188 42.808594 40.066406 L 42.808594 6.328125 C 42.808594 6.144531 42.785156 5.96875 42.742188 5.796875 C 42.730469 5.75 42.71875 5.707031 42.703125 5.664062 C 42.699219 5.65625 42.699219 5.652344 42.695312 5.648438 C 42.691406 5.628906 42.6875 5.613281 42.679688 5.597656 C 42.675781 5.585938 42.671875 5.578125 42.667969 5.566406 C 42.667969 5.5625 42.664062 5.554688 42.660156 5.550781 C 42.65625 5.53125 42.648438 5.515625 42.640625 5.5 C 42.636719 5.484375 42.628906 5.46875 42.621094 5.453125 C 42.617188 5.445312 42.613281 5.4375 42.609375 5.429688 C 42.605469 5.421875 42.601562 5.414062 42.597656 5.40625 C 42.59375 5.390625 42.585938 5.375 42.578125 5.359375 C 42.570312 5.34375 42.5625 5.332031 42.550781 5.316406 C 42.542969 5.300781 42.535156 5.285156 42.527344 5.269531 C 42.519531 5.253906 42.511719 5.242188 42.5 5.226562 C 42.484375 5.195312 42.464844 5.167969 42.445312 5.140625 C 42.441406 5.132812 42.433594 5.125 42.429688 5.117188 C 42.414062 5.097656 42.402344 5.074219 42.386719 5.054688 C 42.367188 5.03125 42.34375 5.003906 42.324219 4.976562 C 42.300781 4.949219 42.28125 4.925781 42.257812 4.898438 C 42.234375 4.875 42.210938 4.847656 42.1875 4.824219 C 41.800781 4.441406 41.269531 4.203125 40.683594 4.203125 Z M 6.945312 4.484375 L 23.675781 4.484375 L 23.675781 23.058594 L 5.101562 23.058594 L 5.101562 6.328125 C 5.101562 5.304688 5.921875 4.484375 6.945312 4.484375 Z M 23.957031 4.484375 L 40.683594 4.484375 C 41.195312 4.484375 41.65625 4.691406 41.988281 5.023438 C 42.011719 5.042969 42.03125 5.066406 42.050781 5.085938 C 42.070312 5.109375 42.089844 5.128906 42.109375 5.152344 C 42.121094 5.171875 42.136719 5.191406 42.152344 5.207031 C 42.15625 5.214844 42.160156 5.21875 42.164062 5.222656 C 42.179688 5.246094 42.199219 5.269531 42.214844 5.296875 C 42.261719 5.367188 42.308594 5.445312 42.347656 5.527344 C 42.371094 5.582031 42.394531 5.636719 42.417969 5.691406 C 42.425781 5.722656 42.4375 5.75 42.445312 5.777344 C 42.5 5.953125 42.527344 6.136719 42.527344 6.328125 L 42.527344 23.058594 L 23.957031 23.058594 Z M 5.101562 23.339844 L 23.675781 23.339844 L 23.675781 41.910156 L 6.945312 41.910156 C 6.914062 41.910156 6.882812 41.910156 6.851562 41.90625 C 6.660156 41.898438 6.480469 41.859375 6.308594 41.800781 C 6.253906 41.777344 6.199219 41.753906 6.144531 41.730469 C 6.0625 41.691406 5.984375 41.644531 5.914062 41.597656 C 5.421875 41.265625 5.101562 40.707031 5.101562 40.066406 Z M 23.957031 23.339844 L 42.527344 23.339844 L 42.527344 40.066406 C 42.527344 41.089844 41.707031 41.910156 40.683594 41.910156 L 23.957031 41.910156 Z M 23.957031 23.339844 "/>
<path style=" stroke:none;fill-rule:nonzero;fill:url(#linear4);" d="M 23.816406 14.265625 C 28.746094 14.265625 32.746094 18.265625 32.746094 23.199219 C 32.746094 28.128906 28.746094 32.128906 23.816406 32.128906 C 18.882812 32.128906 14.882812 28.128906 14.882812 23.199219 C 14.882812 18.265625 18.882812 14.265625 23.816406 14.265625 Z M 23.816406 14.265625 "/>
<path style=" stroke:none;fill-rule:nonzero;fill:rgb(100%,100%,100%);fill-opacity:0.235294;" d="M 18.734375 18.640625 C 19.824219 17.550781 21.0625 17.027344 21.503906 17.464844 C 21.945312 17.90625 21.417969 19.144531 20.328125 20.234375 C 19.238281 21.324219 18 21.847656 17.5625 21.410156 C 17.121094 20.96875 17.648438 19.730469 18.734375 18.640625 Z M 18.734375 18.640625 "/>
<path style=" stroke:none;fill-rule:nonzero;fill:rgb(100%,100%,100%);fill-opacity:0.235294;" d="M 23.816406 14.265625 C 18.867188 14.265625 14.882812 18.25 14.882812 23.199219 C 14.882812 23.363281 14.890625 23.53125 14.898438 23.695312 C 15.152344 18.980469 19.035156 15.257812 23.816406 15.257812 C 28.597656 15.257812 32.476562 18.980469 32.730469 23.695312 C 32.742188 23.53125 32.746094 23.363281 32.746094 23.199219 C 32.746094 18.25 28.761719 14.265625 23.816406 14.265625 Z M 23.816406 14.265625 "/>
<path style=" stroke:none;fill-rule:nonzero;fill:rgb(2.352941%,2.352941%,2.352941%);fill-opacity:0.235294;" d="M 23.816406 33.121094 C 18.867188 33.121094 14.882812 29.136719 14.882812 24.191406 C 14.882812 24.023438 14.890625 23.859375 14.898438 23.695312 C 15.152344 28.410156 19.035156 32.128906 23.816406 32.128906 C 28.597656 32.128906 32.476562 28.410156 32.730469 23.695312 C 32.742188 23.859375 32.746094 24.023438 32.746094 24.191406 C 32.746094 29.136719 28.761719 33.121094 23.816406 33.121094 Z M 23.816406 33.121094 "/>
<path style="fill:none;stroke-width:3;stroke-linecap:round;stroke-linejoin:miter;stroke:rgb(12.941177%,12.941177%,12.941177%);stroke-opacity:1;stroke-miterlimit:4;" d="M 254.017409 -62.847863 C 306.595722 -62.847863 349.258314 -20.185271 349.258314 32.434704 C 349.258314 85.013017 306.595722 127.675609 254.017409 127.675609 C 201.397434 127.675609 158.734842 85.013017 158.734842 32.434704 C 158.734842 -20.185271 201.397434 -62.847863 254.017409 -62.847863 Z M 254.017409 -62.847863 " transform="matrix(0.093759,0,0,0.093759,0,20.158175)"/>
</g>
</svg>
